X: 986
T: Allan Dewar's
R: reel
M: 4/4
K: Edorian
|:E2 ED E2 eA|B2 dA BEEG|F2 EF DB,A,B,|D2 FA BdAF|
E2 ED E2 eA B2 dA BEEG|F2 EF DB,A,B,|D2 FA BEEF:|
|:Eeed e2 ef|gbaf ge e2|AddB ABdb|afge fd dF|
Eeed e2 ef|gbaf geeB|ABdf bafd|BdAF BEEF:|

